X: 13
T:Hosannah
% Nottingham Music Database
S:Chris McDouall, via EF
M:4/4
L:1/4
K:G
d/2d/2|"G"d2 BA|"G"G2 AG|"C"EG3-|"C"G2 dd|"G"d2 BA|"Em"G2 B2|"A7"A4-|
"D7"A2 dd|"G"d2 BA|"G"G2 AG|"C"EG3-|"C"G2 GA|"G"Bd dc|"A7"B2 "D7"A2|"G"G4-|
"D7"GA Bc|"G"d3B|"G7"G2 d2|"C"e3c|"A7"A2 e2|"D7"f3e|"D7"dc BA|"G"G2 "C"e2|
"D7"dc Bc|"G"d3B|"G7"G2 d2|"C"e3c|"A7"A2 e2|"D7"f3e|"D7"dc BA|"G"G2 -"C"G2-|\
"G"G3||<end>
<start>
